Newaita-dark/apps/22/bibletime.svg

<?xml version="1.0" encoding="UTF-8"?>
<svg xmlns="http://www.w3.org/2000/svg" xmlns:xlink="http://www.w3.org/1999/xlink" width="22px" height="22px" viewBox="0 0 22 22" version="1.1">
<defs>
<linearGradient id="linear0" gradientUnits="userSpaceOnUse" x1="254" y1="233.5" x2="254" y2="254.666672" gradientTransform="matrix(0.0429729,0,0,0.0429729,-0.00000262285,9.239165)">
<stop offset="0" style="stop-color:rgb(0%,0%,0%);stop-opacity:0.27451;"/>
<stop offset="1" style="stop-color:rgb(0%,0%,0%);stop-opacity:0;"/>
</linearGradient>
<radialGradient id="radial0" gradientUnits="userSpaceOnUse" cx="450.908936" cy="189.579361" fx="450.908936" fy="189.579361" r="21.166656" gradientTransform="matrix(0.000000119742,-0.0537161,-0.0966889,-0.0000000698078,34.475434,43.721791)">
<stop offset="0" style="stop-color:rgb(0%,0%,0%);stop-opacity:0.313726;"/>
<stop offset="0.222222" style="stop-color:rgb(0%,0%,0%);stop-opacity:0.27451;"/>
<stop offset="1" style="stop-color:rgb(0%,0%,0%);stop-opacity:0;"/>
</radialGradient>
<radialGradient id="radial1" gradientUnits="userSpaceOnUse" cx="450.908936" cy="189.579361" fx="450.908936" fy="189.579361" r="21.166656" gradientTransform="matrix(-0.000000119742,0.0537161,0.0966889,0.0000000698078,-12.645221,-5.175143)">
<stop offset="0" style="stop-color:rgb(0%,0%,0%);stop-opacity:0.313726;"/>
<stop offset="0.222222" style="stop-color:rgb(0%,0%,0%);stop-opacity:0.27451;"/>
<stop offset="1" style="stop-color:rgb(0%,0%,0%);stop-opacity:0;"/>
</radialGradient>
<radialGradient id="radial2" gradientUnits="userSpaceOnUse" cx="450.908936" cy="189.579361" fx="450.908936" fy="189.579361" r="21.166656" gradientTransform="matrix(-0.000000119742,-0.0537161,0.0966889,-0.0000000698078,-12.645221,43.721791)">
<stop offset="0" style="stop-color:rgb(0%,0%,0%);stop-opacity:0.313726;"/>
<stop offset="0.222222" style="stop-color:rgb(0%,0%,0%);stop-opacity:0.27451;"/>
<stop offset="1" style="stop-color:rgb(0%,0%,0%);stop-opacity:0;"/>
</radialGradient>
<radialGradient id="radial3" gradientUnits="userSpaceOnUse" cx="450.908936" cy="189.579361" fx="450.908936" fy="189.579361" r="21.166656" gradientTransform="matrix(0.000000119742,0.0537161,-0.0966889,0.0000000698078,34.475433,-5.175142)">
<stop offset="0" style="stop-color:rgb(0%,0%,0%);stop-opacity:0.313726;"/>
<stop offset="0.222222" style="stop-color:rgb(0%,0%,0%);stop-opacity:0.27451;"/>
<stop offset="1" style="stop-color:rgb(0%,0%,0%);stop-opacity:0;"/>
</radialGradient>
<linearGradient id="linear1" gradientUnits="userSpaceOnUse" x1="306.916656" y1="-25.791676" x2="305.954559" y2="-141.414581" gradientTransform="matrix(0.0518029,0,0,0.149471,-4.024634,23.128427)">
<stop offset="0" style="stop-color:rgb(25.882354%,25.882354%,25.882354%);stop-opacity:1;"/>
<stop offset="1" style="stop-color:rgb(45.882353%,45.882353%,45.882353%);stop-opacity:1;"/>
</linearGradient>
<linearGradient id="linear2" gradientUnits="userSpaceOnUse" x1="165.484848" y1="-25.791672" x2="165.484848" y2="-141.414581" gradientTransform="matrix(4.556143,0,0,13.146184,-353.972656,2034.180176)">
<stop offset="0" style="stop-color:rgb(25.882354%,25.882354%,25.882354%);stop-opacity:1;"/>
<stop offset="1" style="stop-color:rgb(45.882353%,45.882353%,45.882353%);stop-opacity:1;"/>
</linearGradient>
<linearGradient id="linear3" gradientUnits="userSpaceOnUse" x1="1040" y1="1695.118164" x2="1040" y2="175.118118" gradientTransform="matrix(0.0113699,0,0,0.0113699,0,0)">
<stop offset="0" style="stop-color:rgb(100%,65.490198%,14.901961%);stop-opacity:1;"/>
<stop offset="1" style="stop-color:rgb(100%,71.764708%,30.19608%);stop-opacity:1;"/>
</linearGradient>
<linearGradient id="linear4" gradientUnits="userSpaceOnUse" x1="1040" y1="1695.118164" x2="1040" y2="175.118134" gradientTransform="matrix(0.264583,0,0,0.264583,-0.00000633333,-214.999756)">
<stop offset="0" style="stop-color:rgb(100%,65.490198%,14.901961%);stop-opacity:1;"/>
<stop offset="1" style="stop-color:rgb(100%,71.764708%,30.19608%);stop-opacity:1;"/>
</linearGradient>
<linearGradient id="linear5" gradientUnits="userSpaceOnUse" x1="105.833344" y1="0.666667" x2="105.833344" y2="-20.499998" gradientTransform="matrix(0.0429729,0,0,0.0429729,-0.000000315134,7.192592)">
<stop offset="0" style="stop-color:rgb(25.882354%,25.882354%,25.882354%);stop-opacity:1;"/>
<stop offset="1" style="stop-color:rgb(45.882353%,45.882353%,45.882353%);stop-opacity:1;"/>
</linearGradient>
<linearGradient id="linear6" gradientUnits="userSpaceOnUse" x1="105.833344" y1="0.666667" x2="105.833344" y2="-20.499998" gradientTransform="matrix(0.0429729,0,0,0.0429729,-0.000000315134,14.696727)">
<stop offset="0" style="stop-color:rgb(25.882354%,25.882354%,25.882354%);stop-opacity:1;"/>
<stop offset="1" style="stop-color:rgb(45.882353%,45.882353%,45.882353%);stop-opacity:1;"/>
</linearGradient>
</defs>
<g id="surface1">
<path style=" stroke:none;fill-rule:nonzero;fill:url(#linear0);" d="M 5.457031 19.273438 L 16.371094 19.273438 L 16.371094 20.183594 L 5.457031 20.183594 Z M 5.457031 19.273438 "/>
<path style=" stroke:none;fill-rule:nonzero;fill:url(#radial0);" d="M 16.371094 19.273438 L 18.191406 19.273438 L 18.191406 18.363281 L 16.371094 18.363281 Z M 16.371094 19.273438 "/>
<path style=" stroke:none;fill-rule:nonzero;fill:url(#radial1);" d="M 5.457031 19.273438 L 3.636719 19.273438 L 3.636719 20.183594 L 5.457031 20.183594 Z M 5.457031 19.273438 "/>
<path style=" stroke:none;fill-rule:nonzero;fill:url(#radial2);" d="M 5.457031 19.273438 L 3.636719 19.273438 L 3.636719 18.363281 L 5.457031 18.363281 Z M 5.457031 19.273438 "/>
<path style=" stroke:none;fill-rule:nonzero;fill:url(#radial3);" d="M 16.371094 19.273438 L 18.191406 19.273438 L 18.191406 20.183594 L 16.371094 20.183594 Z M 16.371094 19.273438 "/>
<path style=" stroke:none;fill-rule:nonzero;fill:url(#linear1);" d="M 4.546875 1.992188 L 17.28125 1.992188 C 17.785156 1.992188 18.191406 2.398438 18.191406 2.902344 L 18.191406 18.363281 C 18.191406 18.867188 17.785156 19.273438 17.28125 19.273438 L 4.546875 19.273438 C 4.046875 19.273438 3.636719 18.867188 3.636719 18.363281 L 3.636719 2.902344 C 3.636719 2.398438 4.046875 1.992188 4.546875 1.992188 Z M 4.546875 1.992188 "/>
<path style="fill-rule:nonzero;fill:url(#linear2);stroke-width:11.338583;stroke-linecap:round;stroke-linejoin:miter;stroke:rgb(12.941177%,12.941177%,12.941177%);stroke-opacity:1;stroke-miterlimit:4;" d="M 399.904566 175.215918 C 355.585246 175.215918 319.854941 210.946223 319.854941 255.265544 L 319.854941 1615.078494 C 319.854941 1659.397814 355.585246 1695.128119 399.904566 1695.128119 L 520.150785 1695.128119 L 520.150785 175.215918 Z M 399.904566 175.215918 " transform="matrix(0.0113699,0,0,0.0113699,0,0)"/>
<path style=" stroke:none;fill-rule:nonzero;fill:rgb(0%,0%,0%);fill-opacity:0.196078;" d="M 4.546875 19.222656 C 4.042969 19.222656 3.636719 18.816406 3.636719 18.3125 L 3.636719 18.199219 C 3.636719 18.703125 4.042969 19.109375 4.546875 19.109375 L 17.28125 19.109375 C 17.785156 19.109375 18.191406 18.703125 18.191406 18.199219 L 18.191406 18.3125 C 18.191406 18.816406 17.785156 19.222656 17.28125 19.222656 Z M 4.546875 19.222656 "/>
<path style=" stroke:none;fill-rule:nonzero;fill:rgb(100%,100%,100%);fill-opacity:0.392157;" d="M 4.546875 2.042969 C 4.042969 2.042969 3.636719 2.449219 3.636719 2.953125 L 3.636719 3.066406 C 3.636719 2.5625 4.042969 2.15625 4.546875 2.15625 L 17.28125 2.15625 C 17.785156 2.15625 18.191406 2.5625 18.191406 3.066406 L 18.191406 2.953125 C 18.191406 2.449219 17.785156 2.042969 17.28125 2.042969 Z M 4.546875 2.042969 "/>
<path style=" stroke:none;fill-rule:nonzero;fill:rgb(12.941177%,12.941177%,12.941177%);fill-opacity:1;" d="M 4.546875 1.925781 C 4.007812 1.925781 3.574219 2.363281 3.574219 2.902344 L 3.574219 18.363281 C 3.574219 18.902344 4.007812 19.335938 4.546875 19.335938 L 17.28125 19.335938 C 17.820312 19.335938 18.257812 18.902344 18.257812 18.363281 L 18.257812 2.902344 C 18.257812 2.363281 17.820312 1.925781 17.28125 1.925781 Z M 4.546875 2.054688 L 17.28125 2.054688 C 17.75 2.054688 18.128906 2.429688 18.128906 2.902344 L 18.128906 18.363281 C 18.128906 18.832031 17.75 19.207031 17.28125 19.207031 L 4.546875 19.207031 C 4.078125 19.207031 3.703125 18.832031 3.703125 18.363281 L 3.703125 2.902344 C 3.703125 2.429688 4.078125 2.054688 4.546875 2.054688 Z M 4.546875 2.054688 "/>
<path style=" stroke:none;fill-rule:nonzero;fill:url(#linear3);" d="M 11.824219 4.265625 C 11.574219 4.265625 11.371094 4.46875 11.371094 4.71875 L 11.371094 7.449219 L 8.640625 7.449219 C 8.390625 7.449219 8.1875 7.652344 8.1875 7.902344 L 8.1875 8.359375 C 8.1875 8.609375 8.390625 8.8125 8.640625 8.8125 L 11.371094 8.8125 L 11.371094 14.269531 C 11.371094 14.523438 11.574219 14.726562 11.824219 14.726562 L 12.28125 14.726562 C 12.53125 14.726562 12.734375 14.523438 12.734375 14.269531 L 12.734375 8.8125 L 15.464844 8.8125 C 15.714844 8.8125 15.917969 8.609375 15.917969 8.359375 L 15.917969 7.902344 C 15.917969 7.652344 15.714844 7.449219 15.464844 7.449219 L 12.734375 7.449219 L 12.734375 4.71875 C 12.734375 4.46875 12.53125 4.265625 12.28125 4.265625 Z M 11.824219 4.265625 "/>
<path style=" stroke:none;fill-rule:nonzero;fill:rgb(100%,100%,100%);fill-opacity:0.392157;" d="M 11.824219 4.265625 C 11.574219 4.265625 11.371094 4.46875 11.371094 4.71875 L 11.371094 4.945312 C 11.371094 4.695312 11.574219 4.492188 11.824219 4.492188 L 12.28125 4.492188 C 12.53125 4.492188 12.734375 4.695312 12.734375 4.945312 L 12.734375 4.71875 C 12.734375 4.46875 12.53125 4.265625 12.28125 4.265625 Z M 8.640625 7.449219 C 8.390625 7.449219 8.1875 7.652344 8.1875 7.902344 L 8.1875 8.128906 C 8.1875 7.878906 8.390625 7.675781 8.640625 7.675781 L 11.371094 7.675781 L 11.371094 7.449219 Z M 12.734375 7.449219 L 12.734375 7.675781 L 15.464844 7.675781 C 15.714844 7.675781 15.917969 7.878906 15.917969 8.128906 L 15.917969 7.902344 C 15.917969 7.652344 15.714844 7.449219 15.464844 7.449219 Z M 12.734375 7.449219 "/>
<path style=" stroke:none;fill-rule:nonzero;fill:rgb(0%,0%,0%);fill-opacity:0.235294;" d="M 8.1875 8.359375 L 8.1875 8.585938 C 8.1875 8.835938 8.390625 9.039062 8.640625 9.039062 L 11.371094 9.039062 L 11.371094 8.8125 L 8.640625 8.8125 C 8.390625 8.8125 8.1875 8.609375 8.1875 8.359375 Z M 15.917969 8.359375 C 15.917969 8.609375 15.714844 8.8125 15.464844 8.8125 L 12.734375 8.8125 L 12.734375 9.039062 L 15.464844 9.039062 C 15.714844 9.039062 15.917969 8.835938 15.917969 8.585938 Z M 11.371094 14.269531 L 11.371094 14.496094 C 11.371094 14.75 11.574219 14.953125 11.824219 14.953125 L 12.28125 14.953125 C 12.53125 14.953125 12.734375 14.75 12.734375 14.496094 L 12.734375 14.269531 C 12.734375 14.523438 12.53125 14.726562 12.28125 14.726562 L 11.824219 14.726562 C 11.574219 14.726562 11.371094 14.523438 11.371094 14.269531 Z M 11.371094 14.269531 "/>
<path style="fill:none;stroke-width:11.338583;stroke-linecap:round;stroke-linejoin:round;stroke:rgb(12.941177%,12.941177%,12.941177%);stroke-opacity:1;stroke-miterlimit:4;" d="M 1039.958009 375.168202 C 1017.970129 375.168202 1000.104977 393.033354 1000.104977 415.021234 L 1000.104977 655.17011 L 759.956101 655.17011 C 737.968221 655.17011 720.103068 673.035263 720.103068 695.023143 L 720.103068 735.219736 C 720.103068 757.207616 737.968221 775.072768 759.956101 775.072768 L 1000.104977 775.072768 L 1000.104977 1255.02696 C 1000.104977 1277.3584 1017.970129 1295.223553 1039.958009 1295.223553 L 1080.154602 1295.223553 C 1102.142482 1295.223553 1120.007635 1277.3584 1120.007635 1255.02696 L 1120.007635 775.072768 L 1360.156511 775.072768 C 1382.144391 775.072768 1400.009543 757.207616 1400.009543 735.219736 L 1400.009543 695.023143 C 1400.009543 673.035263 1382.144391 655.17011 1360.156511 655.17011 L 1120.007635 655.17011 L 1120.007635 415.021234 C 1120.007635 393.033354 1102.142482 375.168202 1080.154602 375.168202 Z M 1039.958009 375.168202 " transform="matrix(0.0113699,0,0,0.0113699,0,0)"/>
<path style="fill:none;stroke-width:8;stroke-linecap:round;stroke-linejoin:round;stroke:url(#linear4);stroke-dasharray:16.000002,16.000002;stroke-dashoffset:7.200001;stroke-miterlimit:4;" d="M 148.167669 -147.460995 L 148.167669 212.322829 L 391.598968 212.322829 C 397.416594 212.322829 402.143415 207.596008 402.143415 201.778381 L 402.143415 -136.916548 C 402.143415 -142.825074 397.416594 -147.460995 391.598968 -147.460995 Z M 148.167669 -147.460995 " transform="matrix(0.0429729,0,0,0.0429729,0,9.239163)"/>
<path style=" stroke:none;fill-rule:nonzero;fill:url(#linear5);" d="M 3.636719 6.3125 L 5.914062 6.3125 L 5.914062 7.222656 L 3.636719 7.222656 Z M 3.636719 6.3125 "/>
<path style=" stroke:none;fill-rule:nonzero;fill:rgb(0%,0%,0%);fill-opacity:0.235294;" d="M 3.636719 7.222656 L 3.636719 7.5625 L 5.914062 7.5625 L 5.914062 7.222656 Z M 3.636719 7.222656 "/>
<path style=" stroke:none;fill-rule:nonzero;fill:rgb(100%,100%,100%);fill-opacity:0.392157;" d="M 3.636719 6.3125 L 3.636719 6.539062 L 5.914062 6.539062 L 5.914062 6.3125 Z M 3.636719 6.3125 "/>
<path style="fill:none;stroke-width:3;stroke-linecap:round;stroke-linejoin:round;stroke:rgb(12.941177%,12.941177%,12.941177%);stroke-opacity:1;stroke-miterlimit:4;" d="M 84.628289 -20.480177 L 137.623229 -20.480177 L 137.623229 0.699618 L 84.628289 0.699618 Z M 84.628289 -20.480177 " transform="matrix(0.0429729,0,0,0.0429729,-0.000000315134,7.192592)"/>
<path style=" stroke:none;fill-rule:nonzero;fill:url(#linear6);" d="M 3.636719 13.816406 L 5.914062 13.816406 L 5.914062 14.726562 L 3.636719 14.726562 Z M 3.636719 13.816406 "/>
<path style=" stroke:none;fill-rule:nonzero;fill:rgb(0%,0%,0%);fill-opacity:0.235294;" d="M 3.636719 14.726562 L 3.636719 15.066406 L 5.914062 15.066406 L 5.914062 14.726562 Z M 3.636719 14.726562 "/>
<path style=" stroke:none;fill-rule:nonzero;fill:rgb(100%,100%,100%);fill-opacity:0.392157;" d="M 3.636719 13.816406 L 3.636719 14.042969 L 5.914062 14.042969 L 5.914062 13.816406 Z M 3.636719 13.816406 "/>
<path style="fill:none;stroke-width:3;stroke-linecap:round;stroke-linejoin:round;stroke:rgb(12.941177%,12.941177%,12.941177%);stroke-opacity:1;stroke-miterlimit:4;" d="M 84.628289 -20.485508 L 137.623229 -20.485508 L 137.623229 0.694288 L 84.628289 0.694288 Z M 84.628289 -20.485508 " transform="matrix(0.0429729,0,0,0.0429729,-0.000000315134,14.696727)"/>
</g>
</svg>

<svg xmlns="http://www.w3.org/2000/svg" width="22pt" height="22pt" viewBox="0 0 22 22"><defs><linearGradient id="a" gradientUnits="userSpaceOnUse" x1="254" y1="233.5" x2="254" y2="254.667" gradientTransform="matrix(.04297 0 0 .04297 0 9.24)"><stop offset="0" stop-opacity=".275"/><stop offset="1" stop-opacity="0"/></linearGradient><radialGradient id="b" gradientUnits="userSpaceOnUse" cx="450.909" cy="189.579" fx="450.909" fy="189.579" r="21.167" gradientTransform="matrix(0 -.05372 -.09669 0 34.475 43.722)"><stop offset="0" stop-opacity=".314"/><stop offset=".222" stop-opacity=".275"/><stop offset="1" stop-opacity="0"/></radialGradient><radialGradient id="c" gradientUnits="userSpaceOnUse" cx="450.909" cy="189.579" fx="450.909" fy="189.579" r="21.167" gradientTransform="matrix(0 .05372 .09669 0 -12.645 -5.175)"><stop offset="0" stop-opacity=".314"/><stop offset=".222" stop-opacity=".275"/><stop offset="1" stop-opacity="0"/></radialGradient><radialGradient id="d" gradientUnits="userSpaceOnUse" cx="450.909" cy="189.579" fx="450.909" fy="189.579" r="21.167" gradientTransform="matrix(0 -.05372 .09669 0 -12.645 43.722)"><stop offset="0" stop-opacity=".314"/><stop offset=".222" stop-opacity=".275"/><stop offset="1" stop-opacity="0"/></radialGradient><radialGradient id="e" gradientUnits="userSpaceOnUse" cx="450.909" cy="189.579" fx="450.909" fy="189.579" r="21.167" gradientTransform="matrix(0 .05372 -.09669 0 34.475 -5.175)"><stop offset="0" stop-opacity=".314"/><stop offset=".222" stop-opacity=".275"/><stop offset="1" stop-opacity="0"/></radialGradient><linearGradient id="f" gradientUnits="userSpaceOnUse" x1="306.917" y1="-25.792" x2="305.955" y2="-141.415" gradientTransform="matrix(.0518 0 0 .14947 -4.025 23.128)"><stop offset="0" stop-color="#424242"/><stop offset="1" stop-color="#757575"/></linearGradient><linearGradient id="g" gradientUnits="userSpaceOnUse" x1="165.485" y1="-25.792" x2="165.485" y2="-141.415" gradientTransform="matrix(4.55614 0 0 13.14618 -353.973 2034.18)"><stop offset="0" stop-color="#ffa726"/><stop offset="1" stop-color="#ffb74d"/></linearGradient><linearGradient id="h" gradientUnits="userSpaceOnUse" x1="1040" y1="1695.118" x2="1040" y2="175.118" gradientTransform="rotate(.24) scale(.01137)"><stop offset="0" stop-color="#ffa726"/><stop offset="1" stop-color="#ffb74d"/></linearGradient></defs><path d="M5.457 19.273h10.914v.91H5.457zm0 0" fill="url(#a)"/><path d="M16.371 19.273h1.82v-.91h-1.82zm0 0" fill="url(#b)"/><path d="M5.457 19.273h-1.82v.91h1.82zm0 0" fill="url(#c)"/><path d="M5.457 19.273h-1.82v-.91h1.82zm0 0" fill="url(#d)"/><path d="M16.371 19.273h1.82v.91h-1.82zm0 0" fill="url(#e)"/><path d="M4.547 1.992H17.28c.504 0 .91.406.91.91v15.461c0 .504-.406.91-.91.91H4.547c-.5 0-.91-.406-.91-.91V2.903c0-.505.41-.91.91-.91zm0 0" fill="url(#f)"/><path d="M399.905 175.216c-44.32 0-80.05 35.73-80.05 80.05v1359.812c0 44.32 35.73 80.05 80.05 80.05H520.15V175.216zm0 0" transform="rotate(.24) scale(.01137)" fill="url(#g)" stroke-width="11.339" stroke-linecap="round" stroke="#212121"/><path d="M4.547 19.223a.909.909 0 0 1-.91-.91v-.114c0 .504.406.91.91.91H17.28c.504 0 .91-.406.91-.91v.113c0 .504-.406.91-.91.91zm0 0" fill-opacity=".196"/><path d="M4.547 2.043a.909.909 0 0 0-.91.91v.113c0-.503.406-.91.91-.91H17.28c.504 0 .91.406.91.91v-.113a.909.909 0 0 0-.91-.91zm0 0" fill="#fff" fill-opacity=".392"/><path d="M4.547 1.926a.974.974 0 0 0-.973.976v15.461c0 .54.434.973.973.973H17.28c.54 0 .977-.434.977-.973V2.903a.977.977 0 0 0-.977-.977zm0 .129H17.28c.469 0 .848.375.848.847v15.461a.844.844 0 0 1-.848.844H4.547a.84.84 0 0 1-.844-.844V2.903c0-.473.375-.848.844-.848zm0 0" fill="#212121"/><path d="M11.824 4.266a.453.453 0 0 0-.453.453v2.73h-2.73a.453.453 0 0 0-.454.453v.457c0 .25.204.454.454.454h2.73v5.457c0 .253.203.457.453.457h.457c.25 0 .453-.204.453-.457V8.813h2.73c.25 0 .454-.204.454-.454v-.457a.453.453 0 0 0-.453-.453h-2.73V4.72a.453.453 0 0 0-.454-.453zm0 0" fill="url(#h)"/><path d="M11.824 4.266a.453.453 0 0 0-.453.453v.226c0-.25.203-.453.453-.453h.457c.25 0 .453.203.453.453V4.72a.453.453 0 0 0-.453-.453zM8.641 7.449a.453.453 0 0 0-.454.453v.227c0-.25.204-.453.454-.453h2.73v-.227zm4.093 0v.227h2.73c.25 0 .454.203.454.453v-.227a.453.453 0 0 0-.453-.453zm0 0" fill="#fff" fill-opacity=".392"/><path d="M8.188 8.36v.226c0 .25.203.453.453.453h2.73v-.226h-2.73a.453.453 0 0 1-.454-.454zm7.73 0c0 .25-.203.453-.453.453h-2.73v.226h2.73c.25 0 .453-.203.453-.453zm-4.547 5.91v.226c0 .254.203.457.453.457h.457c.25 0 .453-.203.453-.457v-.226a.454.454 0 0 1-.453.457h-.457a.454.454 0 0 1-.453-.457zm0 0" fill-opacity=".235"/><path d="M11.824 4.266a.453.453 0 0 0-.453.453v2.73h-2.73a.453.453 0 0 0-.454.453v.457c0 .25.204.453.454.453h2.73v5.458c0 .253.203.457.453.457h.457c.25 0 .453-.204.453-.457V8.812h2.73c.25 0 .454-.203.454-.453v-.457a.453.453 0 0 0-.453-.453h-2.73V4.72a.453.453 0 0 0-.454-.453zm0 0" fill="none" stroke-width=".12892443" stroke-linecap="round" stroke-linejoin="round" stroke="#212121"/></svg>
